!!!OTL: MUSS ICH DENN MUSS ICH DENN
!!!ARE: Europa, Mitteleuropa, Deutschland, Hessen, Odenwald
!!!SCT: E0785A
!!!YEM: Copyright 1995, estate of Helmut Schaffrath.
**kern
*ICvox
*Ivox
*M2/4
*k[b-]
*F:
{16f
16a
=1
8cc
16cc
16cc
8cc
16ff
16dd
=2
8cc
16cc
16cc
8a}
{16dd
16dd
=3
8.cc
16b-
8g
8cc
=4
4a
8r}
{16f
16a
=5
8cc
16cc
16cc
8cc
16ff
16dd
=6
8cc
16cc
16cc
8a}
{16dd
16dd
=7
8.cc
16b-
8g
8cc
=8
4a
8r}
{16cc
16cc
=9
8g
8g
8g
8cc
=10
8a
8a
8a}
{16f
16f
=11
8.b-
16dd
16ff
16ee
16ff
16dd
=12
4cc
8r}
{16f
16a
=13
8cc
16cc
16cc
8cc
16ff
16dd
=14
8cc
16cc
16cc
8a}
{16dd
16dd
=15
8.cc
16b-
8g
8cc
=16
4a
8r}
==
!!!AGN: Abschieds - Lied, Liebe
!!!ONB: ESAC (Essen Associative Code) Database: ERK2
!!!AMT: simple duple
!!!AIN: vox
!!!EED: Helmut Schaffrath
!!!EEV: 1.0
*-
